docs/assets/images/bank-card.svg

<svg xmlns="http://www.w3.org/2000/svg" width="69" height="68" fill="none" viewBox="0 0 69 68"><path fill="#AAD3FF" d="M58.6908 22.0572L32.0748 2.52783L6.38704 22.1728L6.85295 27.7497V52.2744H5.68994V56.3449H16.0344V54.2501H26.8447V56.2258H37.7672V54.2501H48.2307V56.5761H58.922V52.6247H57.759V27.1717L58.6908 22.0572Z"/><path fill="#DFF4F8" d="M15.3374 27.2874H6.85303V52.1589H15.3374V27.2874Z"/><path fill="#DFF4F8" d="M36.2606 27.634H28.123V52.5056H36.2606V27.634Z"/><path fill="#DFF4F8" d="M57.7624 27.7498H49.5093V52.2745H57.7624V27.7498Z"/><path fill="#59A9FF" d="M15.3368 43.6746H28.1228V27.6342L27.4257 22.2886H15.9183L15.1021 28.1001L15.3368 43.6746Z"/><path fill="#59A9FF" d="M36.492 43.6746H49.2746V27.6342L48.5775 22.2886H37.07L36.2573 28.1001L36.492 43.6746Z"/><path fill="#002140" d="M18.6689 43.4817H24.8693V33.7188C24.8693 33.7188 24.6381 30.5415 21.8462 30.5415C19.0543 30.5415 18.9001 33.95 18.9001 33.95L18.6689 43.4817Z"/><path fill="#002140" d="M39.7569 43.4011L45.7856 43.4817V33.7188C45.7856 33.7188 45.5544 30.5415 42.7625 30.5415C39.9706 30.5415 39.8165 33.95 39.8165 33.95L39.7534 43.4011H39.7569Z"/><path fill="#87C2FF" d="M19.1382 18.5682H45.6386L32.1905 7.52661L19.1382 18.5682Z"/><path stroke="#002140" stroke-linecap="round" stroke-linejoin="round" d="M6.16943 22.1308H58.4697L32.3195 2.25464L6.16943 22.1308Z"/><path stroke="#002140" stroke-linecap="round" stroke-linejoin="round" d="M6.16943 22.1309C6.16943 22.1309 6.86654 25.154 6.86654 27.5921H15.1162C15.1162 25.1505 15.8133 22.1309 15.8133 22.1309"/><path stroke="#002140" stroke-linecap="round" stroke-linejoin="round" d="M6.8667 27.592V52.1168"/><path stroke="#002140" stroke-linecap="round" stroke-linejoin="round" d="M15.1167 27.592V52.0012"/><path stroke="#002140" stroke-linecap="round" stroke-linejoin="round" d="M11.1265 27.9424V51.8856"/><path stroke="#002140" stroke-linecap="round" stroke-linejoin="round" d="M16.3181 52.397H5.75293V56.2713H16.3181V52.397Z"/><path stroke="#002140" stroke-linecap="round" stroke-linejoin="round" d="M48.7075 22.1309C48.7075 22.1309 49.4046 25.154 49.4046 27.5921H57.6578C57.6578 25.1505 58.3549 22.1309 58.3549 22.1309"/><path stroke="#002140" stroke-linecap="round" stroke-linejoin="round" d="M49.4038 27.592V52.1168"/><path stroke="#002140" stroke-linecap="round" stroke-linejoin="round" d="M57.6572 27.592V52.0012"/><path stroke="#002140" stroke-linecap="round" stroke-linejoin="round" d="M53.668 27.9424V51.8856"/><path stroke="#002140" stroke-linecap="round" stroke-linejoin="round" d="M58.8586 52.397H48.2935V56.2713H58.8586V52.397Z"/><path stroke="#002140" stroke-linecap="round" stroke-linejoin="round" d="M27.4961 22.1309C27.4961 22.1309 28.1932 25.154 28.1932 27.5921H36.4463C36.4463 25.1505 37.1434 22.1309 37.1434 22.1309"/><path stroke="#002140" stroke-linecap="round" stroke-linejoin="round" d="M28.1934 27.592V52.1168"/><path stroke="#002140" stroke-linecap="round" stroke-linejoin="round" d="M36.4468 27.592V52.0012"/><path stroke="#002140" stroke-linecap="round" stroke-linejoin="round" d="M32.4565 27.9424V51.8856"/><path stroke="#002140" stroke-linecap="round" stroke-linejoin="round" d="M37.6447 52.397H27.0796V56.2713H37.6447V52.397Z"/><path stroke="#002140" stroke-linecap="round" stroke-linejoin="round" d="M16.3955 54.1521H27.0797"/><path stroke="#002140" stroke-linecap="round" stroke-linejoin="round" d="M38.2471 54.1521H48.2938"/><path stroke="#002140" stroke-linecap="round" stroke-linejoin="round" d="M15.4668 48.8625H27.787"/><path stroke="#002140" stroke-linecap="round" stroke-linejoin="round" d="M15.4668 43.6326H27.787"/><path stroke="#002140" stroke-linecap="round" stroke-linejoin="round" d="M36.6221 48.8625H48.9422"/><path stroke="#002140" stroke-linecap="round" stroke-linejoin="round" d="M36.6221 43.6326H48.9422"/><path stroke="#002140" stroke-linecap="round" stroke-linejoin="round" d="M24.879 43.5168V33.5787C24.879 31.8762 23.4988 30.4995 21.7999 30.4995C20.0974 30.4995 18.7207 31.8797 18.7207 33.5787V43.4012"/><path stroke="#002140" stroke-linecap="round" stroke-linejoin="round" d="M39.7568 43.4012V33.5787C39.7568 31.8762 41.137 30.4995 42.836 30.4995C44.5385 30.4995 45.9152 31.8797 45.9152 33.5787V43.5168"/><path fill="#FF7102" d="M64.8553 46.0814L39.759 46.1996C39.0364 46.2031 38.4534 46.7916 38.4568 47.5141L38.5215 61.227C38.5249 61.9496 39.1134 62.5326 39.8359 62.5292L64.9322 62.4109C65.6548 62.4075 66.2378 61.819 66.2344 61.0964L66.1697 47.3835C66.1663 46.661 65.5778 46.078 64.8553 46.0814Z"/><path stroke="#002140" stroke-linecap="round" stroke-linejoin="round" d="M64.6389 46.0074L39.8976 46.124C39.0337 46.128 38.3368 46.8316 38.3409 47.6954L38.403 60.8881C38.4071 61.7519 39.1107 62.4489 39.9745 62.4448L64.7158 62.3282C65.5796 62.3241 66.2766 61.6206 66.2725 60.7568L66.2103 47.5641C66.2063 46.7003 65.5027 46.0033 64.6389 46.0074Z"/><path stroke="#002140" stroke-linecap="round" stroke-linejoin="round" d="M41.0288 59.7755L44.7972 59.7563"/><path stroke="#002140" stroke-linecap="round" stroke-linejoin="round" d="M46.5249 59.7479L50.2933 59.7305"/><path fill="#F5D5FF" d="M46.685 55.1166L46.6711 52.0441C46.6711 51.8841 46.3666 51.7571 45.9943 51.7588L43.5394 51.771C43.3307 51.771 43.1341 51.8145 43.007 51.8858L42.1737 52.3503C42.0815 52.4008 42.031 52.4652 42.0328 52.5278L42.0432 54.7582C42.0432 54.8174 42.0867 54.8748 42.165 54.9235L42.7931 55.3062C42.9201 55.3845 43.1288 55.4298 43.3515 55.428L46.0152 55.4106C46.3875 55.4089 46.6867 55.2767 46.6867 55.1183L46.685 55.1166Z"/><path fill="#002140" d="M62.7331 51.4398L52.284 51.489C51.8853 51.4909 51.5635 51.8157 51.5654 52.2144L51.5761 54.4796C51.578 54.8784 51.9027 55.2001 52.3015 55.1982L62.7506 55.149C63.1493 55.1471 63.4711 54.8223 63.4692 54.4236L63.4585 52.1584C63.4566 51.7596 63.1319 51.4379 62.7331 51.4398Z"/></svg>

<svg xmlns="http://www.w3.org/2000/svg" width="69" height="68" fill="none" viewBox="0 0 69 68"><path fill="#aad3ff" d="M58.69 22.057 32.076 2.527 6.387 22.174l.466 5.577v24.524H5.69v4.07h10.344V54.25h10.81v1.976h10.923V54.25h10.464v2.326h10.691v-3.951h-1.163V27.172z"/><path fill="#dff4f8" d="M15.337 27.287H6.853V52.16h8.484zm20.923.347h-8.137v24.872h8.138zm21.502.116H49.51v24.525h8.253z"/><path fill="#59a9ff" d="M15.337 43.675h12.786v-16.04l-.697-5.346H15.918l-.816 5.811zm21.155 0h12.783v-16.04l-.697-5.346H37.07l-.813 5.811z"/><path fill="#002140" d="M18.669 43.482h6.2v-9.763s-.23-3.178-3.023-3.178c-2.792 0-2.946 3.409-2.946 3.409zm21.088-.081 6.029.08V33.72s-.232-3.178-3.023-3.178-2.947 3.409-2.947 3.409l-.063 9.451z"/><path fill="#87c2ff" d="M19.138 18.568h26.5L32.192 7.527z"/><path stroke="#002140" stroke-linecap="round" stroke-linejoin="round" d="M6.17 22.13h52.3L32.32 2.256zm0 0s.697 3.024.697 5.462h8.25c0-2.441.696-5.461.696-5.461m-8.946 5.461v24.525m8.25-24.525v24.41m-3.99-24.06v23.944m5.191.511H5.753v3.874h10.565zm32.39-30.267s.697 3.024.697 5.462h8.253c0-2.441.697-5.461.697-5.461m-8.951 5.461v24.525m8.253-24.525v24.41m-3.989-24.06v23.944m5.191.511H48.294v3.874h10.565zM27.496 22.13s.697 3.024.697 5.462h8.253c0-2.441.697-5.461.697-5.461m-8.95 5.461v24.525m8.254-24.525v24.41m-3.99-24.06v23.944m5.188.511H27.08v3.874h10.565zm-21.249 1.755H27.08m11.167 0h10.047m-32.827-5.289h12.32m-12.32-5.23h12.32m8.835 5.23h12.32m-12.32-5.23h12.32m-24.063-.116v-9.938a3.079 3.079 0 1 0-6.158 0V43.4m21.036.001V33.58a3.079 3.079 0 1 1 6.158 0v9.938"/><path fill="#ff7102" d="M64.855 46.081 39.76 46.2a1.31 1.31 0 0 0-1.302 1.314l.065 13.713a1.31 1.31 0 0 0 1.314 1.302l25.096-.118a1.31 1.31 0 0 0 1.302-1.315l-.064-13.712a1.31 1.31 0 0 0-1.315-1.303"/><path stroke="#002140" stroke-linecap="round" stroke-linejoin="round" d="m64.639 46.007-24.741.117a1.564 1.564 0 0 0-1.557 1.571l.062 13.193c.004.864.708 1.56 1.572 1.557l24.74-.117a1.564 1.564 0 0 0 1.557-1.571l-.062-13.193a1.564 1.564 0 0 0-1.571-1.557m-23.61 13.769 3.768-.02m1.728-.008 3.768-.017"/><path fill="#f5d5ff" d="m46.685 55.117-.014-3.073c0-.16-.304-.287-.677-.285l-2.455.012c-.208 0-.405.044-.532.115l-.833.464c-.093.05-.143.115-.141.178l.01 2.23c0 .06.044.117.122.165l.628.383c.127.079.336.124.559.122l2.663-.017c.373-.002.672-.134.672-.293z"/><path fill="#002140" d="m62.733 51.44-10.449.049a.72.72 0 0 0-.719.725l.011 2.266c.002.398.327.72.725.718l10.45-.049a.72.72 0 0 0 .718-.725l-.01-2.266a.72.72 0 0 0-.726-.718"/></svg>
